X: 182
T:The Lass O' Corrie Mill
M:C
L:1/16
C:Strathspey
H:As recorded by Winston S. Fitzgerald
Z:J Weismiller , 14/11/1998
K:F
"F"F3G A3F "C"EG3 "F"F4|"F"Ac3 c3B Ac3 c4|"Bb"d3f "F/A"c3f "Gm"B3f
"F"A3f|"C"(3a2g2f2 (3e2f2d2 (3c2d2B2 (3A2B2G2|
F3G A3F EG3 F4|Ac3 c3B Ac3 c4|d3f c3f B3f A3f|"C"(3a2g2f2 (3e2f2g2
"F"af3 f4||
"F"Ac3 c3B Af3 f4|"C"eg3 g3e "F"fa3 f4|"Bb"bg3 "F/A"af3 "Gm"g3e
"F"f3g|"C"(3a2g2f2 (3e2f2d2 (3c2d2B2 (3A2B2G2|
"F"Ac3 c3B Af3 f4|"C"eg3 g3e "F"fa3 f4|"Bb"bg3 "F/A"af3 "Gm"g3e
"F"f3g|"C"(3a2g2f2 (3e2f2g2 "F"af3 fa3||
<end>
<start>
